cloudphone-mobile/media/svg/media-mail.svg

<svg xmlns="http://www.w3.org/2000/svg" xmlns:xlink="http://www.w3.org/1999/xlink" preserveAspectRatio="xMidYMid" width="76" height="100" viewBox="0 0 76 100">
  <defs>
    <style>
      .cls-1 {
        stroke: #c0c9d3;
        stroke-linecap: round;
        stroke-linejoin: round;
        stroke-width: 2px;
        fill: none;
        fill-rule: evenodd;
      }
    </style>
  </defs>
  <g>
    <path d="M2.000,38.000 L2.000,97.000 C2.000,97.552 2.448,98.000 3.000,98.000 L73.000,98.000 C73.552,98.000 74.000,97.552 74.000,97.000 L74.000,18.000 L58.000,2.000 L18.000,2.000 " class="cls-1"/>
    <path d="M26.000,11.000 L50.000,11.000 " class="cls-1"/>
    <path d="M26.000,23.000 L66.000,23.000 " class="cls-1"/>
    <path d="M26.000,29.000 L66.000,29.000 " class="cls-1"/>
    <path d="M26.000,35.000 L66.000,35.000 " class="cls-1"/>
    <path d="M10.000,42.000 L66.000,42.000 L66.000,90.000 L10.000,90.000 L10.000,42.000 Z" class="cls-1"/>
    <path d="M58.000,2.000 L58.000,18.000 L74.000,18.000 " class="cls-1"/>
    <path d="M8.000,11.000 C8.000,11.000 8.000,23.343 8.000,25.000 C8.000,26.657 9.343,28.000 11.000,28.000 C12.657,28.000 14.000,26.657 14.000,25.000 C14.000,23.343 14.000,11.314 14.000,8.000 C14.000,4.686 11.314,2.000 8.000,2.000 C4.686,2.000 2.000,4.686 2.000,8.000 C2.000,11.314 2.000,20.029 2.000,25.000 C2.000,29.971 6.030,34.000 11.000,34.000 C15.971,34.000 20.000,29.971 20.000,25.000 C20.000,20.029 20.000,11.000 20.000,11.000 " class="cls-1"/>
    <path d="M26.000,17.000 L50.000,17.000 " class="cls-1"/>
  </g>
</svg>

<svg xmlns="http://www.w3.org/2000/svg" preserveAspectRatio="xMidYMid" width="76" height="100" viewBox="0 0 76 100"><defs><style>.cls-1{stroke:#c0c9d3;stroke-linecap:round;stroke-linejoin:round;stroke-width:2px;fill:none;fill-rule:evenodd}</style></defs><path d="M2 38v59a1 1 0 0 0 1 1h70a1 1 0 0 0 1-1V18L58 2H18M26 11h24M26 23h40M26 29h40M26 35h40" class="cls-1"/><path d="M10 42h56v48H10V42zM58 2v16h16M8 11v14a3 3 0 1 0 6 0V8A6 6 0 1 0 2 8v17a9 9 0 0 0 18 0V11M26 17h24" class="cls-1"/></svg>
